optimized/solid/plus.svg

<svg xmlns="http://www.w3.org/2000/svg" viewBox="0 0 20 20" fill="currentColor" aria-hidden="true">
  <path fill-rule="evenodd" d="M10 3C10.5523 3 11 3.44772 11 4V9H16C16.5523 9 17 9.44772 17 10C17 10.5523 16.5523 11 16 11H11V16C11 16.5523 10.5523 17 10 17C9.44772 17 9 16.5523 9 16V11H4C3.44772 11 3 10.5523 3 10C3 9.44771 3.44772 9 4 9L9 9V4C9 3.44772 9.44772 3 10 3Z" clip-rule="evenodd"/>
</svg>

<svg xmlns="http://www.w3.org/2000/svg" viewBox="0 0 20 20" fill="currentColor" aria-hidden="true">
  <path fill-rule="evenodd" d="M10 3a1 1 0 011 1v5h5a1 1 0 110 2h-5v5a1 1 0 11-2 0v-5H4a1 1 0 110-2h5V4a1 1 0 011-1z" clip-rule="evenodd"/>
</svg>
